X:1
T:Lord Gregory
M:4/4
L:1/4
K:C
 C| F3/2 F/2 F G| FF/2-E/2 C3/2 F/2| F G A3/2G/4-F/4| G3| z/2 G/2|\
 c3/2 d/2 e3/2 d/2| c/4 c3/4c/2-B/2 G3/2 F/4E/4| FG/4-E/4 C/2C/2 C3/2|\
 C3||
